X:1
%% Copyright 1956 Atlantic Music Corp.
T:Au privave
M:4/4
L:1/8
C:Charlie Parker
Q:1/4=220
K:F
%%text (medium)
%%vskip 20
P:A
"F6"FEFC z2A^G | "Gm7"AC zE- "Abdim7""C7"EGFE | "F/A""F6"GFAB AFG_E | "Cm7"zdz2 "F7"z_d2B |
"Bb7"=B3f zB_B2- | B4 _AFGF | "Fmaj7"c2zA "(Gm7)"B2zG | "Am7"c2c2- "D7"cABc |
"Gm7"AGFE F2zc | "C7"B2zf- fcef | "F6"z3c- "D7"c3A | "Gm7"BAFD "C7"AA3 |]
